X: 10423
T: MC. DONALD'S REEL
C:
%R: reel
B: Elias Howe "The Musician's Companion" Part 1 1842 p.42 #3
S: http://imslp.org/wiki/The_Musician's_Companion_(Howe,_Elias)
Z: 2015 John Chambers <jc:trillian.mit.edu>
M: C|
L: 1/8
K: G
% - - - - - - - - - - - - - - - - - - - - - - - - -
B |\
d3e dBgB | dBgB aAAB | d3e dBgB | AcBA BGGc |\
Bdde dBgB | dBgB aAAc | Bdde dBgB | AcBA BGG :|
|: B |\
dgbg agbg | dgbg ageg | dgbg agbg | dedc BGGE |\
DGBG AGBG | DGBG AGEG | BAGF GFED | EFGA BGG :|
% - - - - - - - - - - - - - - - - - - - - - - - - -


